apps/penxle.com/src/assets/icons/bookmark-fill.svg

<svg fill="currentColor" viewBox="0 0 13 17" xmlns="http://www.w3.org/2000/svg">
  <path
    d="M0.666748 6.33333C0.666748 4.78227 0.666748 4.00673 0.870679 3.3791C1.28284 2.1106 2.27735 1.11609 3.54584 0.703931C4.17348 0.5 4.94901 0.5 6.50008 0.5C8.05115 0.5 8.82668 0.5 9.45432 0.703931C10.7228 1.11609 11.7173 2.1106 12.1295 3.3791C12.3334 4.00673 12.3334 4.78227 12.3334 6.33333V12.4895C12.3334 14.0871 12.3334 14.8859 12.0485 15.3083C11.7003 15.8244 11.0936 16.1035 10.4752 16.0319C9.96899 15.9734 9.3625 15.4535 8.1495 14.4138C7.61556 13.9561 7.34859 13.7273 7.05534 13.6237C6.69605 13.4967 6.30411 13.4967 5.94482 13.6237C5.65157 13.7273 5.3846 13.9561 4.85066 14.4138C3.63766 15.4535 3.03117 15.9734 2.52497 16.0319C1.90657 16.1035 1.29984 15.8244 0.951711 15.3083C0.666748 14.8859 0.666748 14.0871 0.666748 12.4895V6.33333Z"
  />
</svg>

<svg xmlns="http://www.w3.org/2000/svg" fill="currentColor" viewBox="0 0 13 17">
  <path
    d="M.667 6.333c0-1.55 0-2.326.204-2.954A4.167 4.167 0 0 1 3.546.704C4.173.5 4.949.5 6.5.5c1.551 0 2.327 0 2.954.204a4.167 4.167 0 0 1 2.675 2.675c.204.628.204 1.403.204 2.954v6.156c0 1.598 0 2.397-.284 2.82a1.667 1.667 0 0 1-1.574.723c-.506-.059-1.112-.579-2.325-1.618-.534-.458-.801-.687-1.095-.79a1.666 1.666 0 0 0-1.11 0c-.293.103-.56.332-1.094.79-1.213 1.04-1.82 1.56-2.326 1.618a1.667 1.667 0 0 1-1.573-.724c-.285-.422-.285-1.22-.285-2.819V6.333Z"
  />
</svg>
